assets/icons/qvision/thumb_up_alt.svg

<svg xmlns="http://www.w3.org/2000/svg" height="24" viewBox="0 0 24 24" width="24"><path d="M24 24H0V0h24v24z" fill="none"/><path d="M2 20h2c.55 0 1-.45 1-1v-9c0-.55-.45-1-1-1H2v11zm19.83-7.12c.11-.25.17-.52.17-.8V11c0-1.1-.9-2-2-2h-5.5l.92-4.65c.05-.22.02-.46-.08-.66-.23-.45-.52-.86-.88-1.22L14 2 7.59 8.41C7.21 8.79 7 9.3 7 9.83v7.84C7 18.95 8.05 20 9.34 20h8.11c.7 0 1.36-.37 1.72-.97l2.66-6.15z"/></svg>

<svg width="24" height="24" viewBox="0 0 24 24" fill="none" xmlns="http://www.w3.org/2000/svg">
<g clip-path="url(#clip0_147_6846)">
<path d="M2 20H4C4.55 20 5 19.55 5 19V10C5 9.45 4.55 9 4 9H2V20ZM21.83 12.88C21.94 12.63 22 12.36 22 12.08V11C22 9.9 21.1 9 20 9H14.5L15.42 4.35C15.47 4.13 15.44 3.89 15.34 3.69C15.11 3.24 14.82 2.83 14.46 2.47L14 2L7.59 8.41C7.21 8.79 7 9.3 7 9.83V17.67C7 18.95 8.05 20 9.34 20H17.45C18.15 20 18.81 19.63 19.17 19.03L21.83 12.88Z" fill="#323232"/>
</g>
<defs>
<clipPath id="clip0_147_6846">
<rect width="24" height="24" fill="white"/>
</clipPath>
</defs>
</svg>
